!!!COM: Music21
!!!OTL: jig_Blue-Ice
!!!OMV: jig_Blue-Ice
**kern
*clefG2
*k[f#]
*e:
*M6/8
=1
8eL
8e
8eJ
8gL
8e
8gJ
=
8dL
8d
8dJ
8aL
8f#
8dJ
=
8eL
8e
8eJ
8gL
8e
8gJ
=
8dL
8e
8f#J
8gL
8f#
8dJ
=
8eL
8e
8eJ
8gL
8e
8gJ
=
8dL
8d
8dJ
8aL
8f#
8dJ
!!linebreak:original
=
8eL
8e
8eJ
8gL
8e
8gJ
=
8dL
8g
8f#J
4.e
=||
*M6/8
8eL
8e
8eJ
8gL
8e
8gJ
=
8dL
8d
8dJ
8aL
8f#
8dJ
=
8eL
8e
8eJ
8gL
8e
8gJ
=
8dL
8e
8f#J
8gL
8f#
8dJ
!!linebreak:original
=
8eL
8e
8eJ
8gL
8e
8gJ
=
8dL
8d
8dJ
8aL
8f#
8dJ
=
8eL
8e
8eJ
8gL
8e
8gJ
=
8dL
8e
8f#J
4g
8g
=||
8gL
8d
8gJ
8bL
8g
8bJ
=
4dd
8dd
8ddL
8cc
8bJ
=
4a
8a
8aL
8b
8aJ
!!linebreak:original
=
8gL
8d
8eJ
8bL
8a
8gJ
=
8gL
8d
8gJ
8bL
8g
8bJ
=
4dd
8dd
8ddL
8cc
8bJ
=
4a
8a
8aL
8b
8aJ
=
8gL
8d
8eJ
4g
8g
=||
8gL
8d
8gJ
8bL
8g
8bJ
=
4dd
8dd
8ddL
8cc
8bJ
!!linebreak:original
=
4a
8a
8aL
8b
8aJ
=
8gL
8d
8eJ
8bL
8a
8gJ
=
8gL
8d
8gJ
8bL
8g
8bJ
=
4dd
8dd
8ddL
8cc
8bJ
=
4a
8a
8aL
8b
8aJ
=
8gL
8d
8d#XJ
4.e
=||
*-
